Adwaita++/apps/16/help-browser.svg

<svg height="16" width="16" xmlns="http://www.w3.org/2000/svg">
  <g fill="#474747">
    <path d="m8 0c-4.415 0-8 3.585-8 8s3.585 8 8 8 8-3.585 8-8-3.585-8-8-8zm0 2c3.341 0 6 2.659 6 6s-2.659 6-6 6-6-2.659-6-6 2.659-6 6-6z"/>
    <path d="m7.338 5a2.344 2.344 0 0 0 -2.338 2.338v1.324a2.344 2.344 0 0 0 2.338 2.338h1.324a2.344 2.344 0 0 0 2.338-2.338v-1.324a2.344 2.344 0 0 0 -2.338-2.338zm0 1h1.324c.75 0 1.338.588 1.338 1.338v1.324c0 .75-.588 1.338-1.338 1.338h-1.324c-.75 0-1.338-.588-1.338-1.338v-1.324c0-.75.588-1.338 1.338-1.338z"/>
    <path d="m4.719 1.438a5.881 5.881 0 0 0 -3.282 3.312l3.75 1.875c.252-.64.743-1.17 1.375-1.438zm6.562 0-1.844 3.75a2.574 2.574 0 0 1 1.376 1.437l3.75-1.875a5.881 5.881 0 0 0 -3.282-3.313zm-6.094 8-3.75 1.874a5.904 5.904 0 0 0 3.282 3.25l1.875-3.75a2.59 2.59 0 0 1 -1.407-1.374zm5.625 0a2.59 2.59 0 0 1 -1.406 1.374l1.875 3.75a5.904 5.904 0 0 0 3.281-3.25z"/>
  </g>
</svg>

<svg xmlns="http://www.w3.org/2000/svg" width="16" height="16">
    <g fill="#474747">
        <path d="M8 0C3.585 0 0 3.585 0 8s3.585 8 8 8 8-3.585 8-8-3.585-8-8-8zm0 2c3.341 0 6 2.659 6 6s-2.659 6-6 6-6-2.659-6-6 2.659-6 6-6z" style="line-height:normal;font-variant-ligatures:normal;font-variant-position:normal;font-variant-caps:normal;font-variant-numeric:normal;font-variant-alternates:normal;font-feature-settings:normal;text-indent:0;text-align:start;text-decoration-line:none;text-decoration-style:solid;text-decoration-color:#000;text-transform:none;text-orientation:mixed;shape-padding:0;isolation:auto;mix-blend-mode:normal;marker:none" color="#bebebe" font-weight="400" font-family="sans-serif" white-space="normal" overflow="visible"/>
        <path d="M7.338 5A2.344 2.344 0 0 0 5 7.338v1.324A2.344 2.344 0 0 0 7.338 11h1.324A2.344 2.344 0 0 0 11 8.662V7.338A2.344 2.344 0 0 0 8.662 5zm0 1h1.324C9.412 6 10 6.588 10 7.338v1.324C10 9.412 9.412 10 8.662 10H7.338C6.588 10 6 9.412 6 8.662V7.338C6 6.588 6.588 6 7.338 6z" style="line-height:normal;font-variant-ligatures:normal;font-variant-position:normal;font-variant-caps:normal;font-variant-numeric:normal;font-variant-alternates:normal;font-feature-settings:normal;text-indent:0;text-align:start;text-decoration-line:none;text-decoration-style:solid;text-decoration-color:#000;text-transform:none;text-orientation:mixed;shape-padding:0;isolation:auto;mix-blend-mode:normal;marker:none" color="#bebebe" font-weight="400" font-family="sans-serif" white-space="normal" overflow="visible"/>
        <path d="M4.719 1.438A5.881 5.881 0 0 0 1.437 4.75l3.75 1.875c.252-.64.743-1.17 1.375-1.438zm6.562 0l-1.844 3.75a2.574 2.574 0 0 1 1.376 1.437l3.75-1.875a5.881 5.881 0 0 0-3.282-3.313zm-6.094 8l-3.75 1.874a5.904 5.904 0 0 0 3.282 3.25l1.875-3.75a2.59 2.59 0 0 1-1.407-1.374zm5.625 0a2.59 2.59 0 0 1-1.406 1.374l1.875 3.75a5.904 5.904 0 0 0 3.281-3.25z"/>
    </g>
</svg>
